src/static/images/welt.svg

<svg width="116" height="30" viewBox="0 0 116 30" version="1.1" xmlns="http://www.w3.org/2000/svg" xmlns:xlink="http://www.w3.org/1999/xlink">
<title>welt</title>
<desc>Created using Figma</desc>
<g id="Canvas" transform="translate(527 233)">
<g id="welt">
<g id="Vector">
<use xlink:href="#path0_fill" transform="translate(-527 -233)" fill="#BDBDBD"/>
</g>
</g>
</g>
<defs>
<path id="path0_fill" d="M 99.6057 6.90457L 91.1855 6.90457L 91.1855 0.623527L 115.071 0.623527L 115.071 6.90457L 106.671 6.90457L 106.671 29.377L 99.6057 29.377L 99.6057 6.90457ZM 75.7845 0.624036L 82.8503 0.624036L 82.8503 23.0949L 95.1403 23.0949L 95.1403 29.376L 75.7845 29.376L 75.7845 0.624036ZM 70.7449 25.7487L 70.6544 25.8326C 67.5617 28.6756 63.8088 30 58.845 30C 50.0988 30 44.2221 24.0073 44.2221 15.0882C 44.2221 6.06388 49.9468 4.24398e-09 58.4666 4.24398e-09C 66.6264 4.24398e-09 72.1283 6.01556 72.1578 14.9697C 72.1578 15.8521 72.0983 16.9059 72.0113 17.5518L 51.8474 17.5518L 51.916 17.8855C 52.7816 21.7141 55.3291 23.7373 59.2824 23.7373C 61.8477 23.7373 64.2859 22.8249 66.3314 21.0987L 66.4229 21.0214L 70.7449 25.7482L 70.7449 25.7487ZM 64.7436 12.3302L 64.6724 12.0021C 63.8703 8.30471 61.7038 6.35021 58.4076 6.35021C 54.9706 6.35021 52.7338 8.30471 51.9394 12.0032L 51.8697 12.3302L 64.7441 12.3302L 64.7436 12.3302ZM 31.6122 21.3108L 25.972 0.624036L 18.3544 0.624036L 12.7147 21.2691L 7.34247 0.624036L -6.06282e-11 0.624036L 8.11857 29.377L 16.644 29.377L 22.1123 10.7785L 27.5807 29.377L 36.1061 29.377L 44.2241 0.624036L 36.9839 0.624036L 31.6122 21.3108Z"/>
</defs>
</svg>

<svg width="116" height="30" viewBox="0 0 116 30" xmlns="http://www.w3.org/2000/svg" xmlns:xlink="http://www.w3.org/1999/xlink"><title>welt</title><desc>Created using Figma</desc><use xlink:href="#a" fill="#BDBDBD"/><defs><path id="a" d="M99.606 6.905h-8.42V.624h23.885v6.28h-8.4v22.473h-7.065V6.905zM75.784.624h7.066v22.47h12.29v6.282H75.784V.624zm-5.04 25.125l-.09.084C67.562 28.676 63.81 30 58.845 30c-8.746 0-14.623-5.993-14.623-14.912C44.222 6.064 49.947 0 58.467 0c8.16 0 13.661 6.016 13.69 14.97 0 .882-.059 1.936-.146 2.582H51.847l.069.334c.866 3.828 3.413 5.851 7.366 5.851 2.566 0 5.004-.912 7.05-2.638l.09-.078 4.323 4.727zm-6-13.419l-.072-.328c-.802-3.697-2.968-5.652-6.264-5.652-3.437 0-5.674 1.955-6.469 5.653l-.07.327h12.875zm-33.132 8.98L25.972.625h-7.618l-5.64 20.645L7.343.624H0l8.119 28.753h8.525l5.468-18.599 5.469 18.599h8.525L44.224.624h-7.24l-5.372 20.687z"/></defs></svg>
